src/xmb/retrosystem/achievement-list.svg

<?xml version="1.0" encoding="UTF-8" standalone="no"?>
<svg
   xmlns:dc="http://purl.org/dc/elements/1.1/"
   xmlns:cc="http://creativecommons.org/ns#"
   xmlns:rdf="http://www.w3.org/1999/02/22-rdf-syntax-ns#"
   xmlns:svg="http://www.w3.org/2000/svg"
   xmlns="http://www.w3.org/2000/svg"
   xmlns:sodipodi="http://sodipodi.sourceforge.net/DTD/sodipodi-0.dtd"
   xmlns:inkscape="http://www.inkscape.org/namespaces/inkscape"
   version="1.1"
   id="Calque_1"
   x="0px"
   y="0px"
   width="64px"
   height="64px"
   viewBox="0 0 64 64"
   enable-background="new 0 0 64 64"
   xml:space="preserve"
   inkscape:version="0.92.3 (2405546, 2018-03-11)"
   sodipodi:docname="menu_achievements.svg"
   inkscape:export-filename="/media/alfrix/DATOS/xmb/menu_achievements.png"
   inkscape:export-xdpi="90"
   inkscape:export-ydpi="90"><metadata
     id="metadata8"><rdf:RDF><cc:Work
         rdf:about=""><dc:format>image/svg+xml</dc:format><dc:type
           rdf:resource="http://purl.org/dc/dcmitype/StillImage" /><dc:title /></cc:Work></rdf:RDF></metadata><defs
     id="defs6"><clipPath
       id="clipPath48"
       clipPathUnits="userSpaceOnUse"><path
         inkscape:connector-curvature="0"
         id="path46"
         d="M 0,256 H 256 V 0 H 0 Z" /></clipPath></defs><sodipodi:namedview
     pagecolor="#ffffff"
     bordercolor="#666666"
     borderopacity="1"
     objecttolerance="10"
     gridtolerance="10"
     guidetolerance="10"
     inkscape:pageopacity="0"
     inkscape:pageshadow="2"
     inkscape:window-width="1920"
     inkscape:window-height="1001"
     id="namedview4"
     showgrid="true"
     inkscape:zoom="16"
     inkscape:cx="49.831843"
     inkscape:cy="35.63873"
     inkscape:window-x="-9"
     inkscape:window-y="-9"
     inkscape:window-maximized="1"
     inkscape:current-layer="Calque_1"
     showguides="false"><inkscape:grid
       type="xygrid"
       id="grid2985" /></sodipodi:namedview><path
     style="color:#000000;font-style:normal;font-variant:normal;font-weight:normal;font-stretch:normal;font-size:medium;line-height:normal;font-family:sans-serif;font-variant-ligatures:normal;font-variant-position:normal;font-variant-caps:normal;font-variant-numeric:normal;font-variant-alternates:normal;font-feature-settings:normal;text-indent:0;text-align:start;text-decoration:none;text-decoration-line:none;text-decoration-style:solid;text-decoration-color:#000000;letter-spacing:normal;word-spacing:normal;text-transform:none;writing-mode:lr-tb;direction:ltr;text-orientation:mixed;dominant-baseline:auto;baseline-shift:baseline;text-anchor:start;white-space:normal;shape-padding:0;clip-rule:nonzero;display:inline;overflow:visible;visibility:visible;opacity:1;isolation:auto;mix-blend-mode:normal;color-interpolation:sRGB;color-interpolation-filters:linearRGB;solid-color:#000000;solid-opacity:1;vector-effect:none;fill:#1a1a1a;fill-opacity:1;fill-rule:nonzero;stroke:#1a1a1a;stroke-width:1;stroke-linecap:round;stroke-linejoin:miter;stroke-miterlimit:4;stroke-dasharray:none;stroke-dashoffset:0;stroke-opacity:1;color-rendering:auto;image-rendering:auto;shape-rendering:auto;text-rendering:auto;enable-background:accumulate"
     d="m 15.999999,18 v 1 c 0,2.435185 0.65837,5.196393 2,7.611328 1.34163,2.414936 3.405331,4.503436 6.212891,5.345703 L 24.353515,32 h 1.851563 c 0.975881,1.149397 2.13397,2.041244 3.49414,2.521484 A 2.5,2.5 0 0 0 29.499999,35.5 2.5,2.5 0 0 0 30.564452,37.544922 C 30.179125,41.429656 28.947763,45.024691 26.83789,47 H 37.162109 C 35.052236,45.024691 33.820873,41.429656 33.435546,37.544922 A 2.5,2.5 0 0 0 34.499999,35.5 2.5,2.5 0 0 0 34.298828,34.521484 C 35.659748,34.041394 36.818625,33.149886 37.794921,32 h 1.851563 l 0.140625,-0.04297 c 2.807559,-0.842266 4.871259,-2.930768 6.21289,-5.345703 1.341631,-2.414935 2,-5.176143 2,-7.611328 V 18 H 42.324218 21.675781 Z m 2.132813,2 h 3.628906 c 0.315706,4.290249 1.436357,7.613851 2.994141,10 h -0.04297 C 22.56128,29.32545 20.893541,27.697047 19.749999,25.638672 18.766482,23.86834 18.283796,21.845951 18.132812,20 Z m 24.105469,0 h 3.628906 c -0.150984,1.845951 -0.63367,3.86834 -1.617188,5.638672 C 43.106457,27.697047 41.438719,29.32545 39.287109,30 h -0.04297 c 1.557784,-2.386149 2.678434,-5.709751 2.994142,-10 z"
     id="path827"
     inkscape:connector-curvature="0" /><path
     style="color:#000000;font-style:normal;font-variant:normal;font-weight:normal;font-stretch:normal;font-size:medium;line-height:normal;font-family:sans-serif;font-variant-ligatures:normal;font-variant-position:normal;font-variant-caps:normal;font-variant-numeric:normal;font-variant-alternates:normal;font-feature-settings:normal;text-indent:0;text-align:start;text-decoration:none;text-decoration-line:none;text-decoration-style:solid;text-decoration-color:#000000;letter-spacing:normal;word-spacing:normal;text-transform:none;writing-mode:lr-tb;direction:ltr;text-orientation:mixed;dominant-baseline:auto;baseline-shift:baseline;text-anchor:start;white-space:normal;shape-padding:0;clip-rule:nonzero;display:inline;overflow:visible;visibility:visible;opacity:1;isolation:auto;mix-blend-mode:normal;color-interpolation:sRGB;color-interpolation-filters:linearRGB;solid-color:#000000;solid-opacity:1;vector-effect:none;fill:#d2a62a;fill-opacity:1;fill-rule:nonzero;stroke:none;stroke-width:1;stroke-linecap:round;stroke-linejoin:miter;stroke-miterlimit:4;stroke-dasharray:none;stroke-dashoffset:0;stroke-opacity:1;color-rendering:auto;image-rendering:auto;shape-rendering:auto;text-rendering:auto;enable-background:accumulate"
     d="m 16,18 v 1 c 0,2.435185 0.65837,5.196393 2,7.611328 1.34163,2.414936 3.405331,4.503436 6.212891,5.345703 L 24.353516,32 h 15.292968 l 0.140625,-0.04297 C 42.594668,31.114764 44.658369,29.026263 46,26.611328 47.341631,24.196393 48,21.435185 48,19 v -1 z m 2.132812,2 H 45.867188 C 45.716204,21.845951 45.233518,23.86834 44.25,25.638672 43.106458,27.697047 41.438719,29.32545 39.287109,30 H 24.712891 C 22.561281,29.32545 20.893542,27.697047 19.75,25.638672 18.766483,23.86834 18.283796,21.845951 18.132812,20 Z"
     id="path2987"
     inkscape:connector-curvature="0"
     sodipodi:nodetypes="cssccccssccccsccsc" /><path
     id="core_cheat_options"
     d="M 32,18.000001 H 21.674814 c 0,4.833333 2.581295,16.916667 10.325186,16.916667 7.74389,0 10.325186,-12.083334 10.325186,-16.916667 z m -5.162593,29 h 10.325186 c -2.581297,-2.416666 -3.871944,-7.25 -3.871944,-12.083333 C 32,32.500001 32,32.500001 30.709352,34.916668 c 0,4.833333 -1.290648,9.666667 -3.871945,12.083333 z"
     inkscape:connector-curvature="0"
     style="fill:#e8c41e;stroke-width:1;fill-opacity:1;stroke:none;stroke-opacity:1"
     sodipodi:nodetypes="cccccccccc" /><circle
     cy="35.5"
     cx="32"
     style="fill:#d2a62a;fill-opacity:1;stroke:none;stroke-width:1;stroke-opacity:1"
     id="path3757"
     r="2.5" /><path
     id="core_cheat_options-8"
     d="M 32,18.000001 H 21.674814 C 22,40 42,40 42.325186,18.000001 Z"
     inkscape:connector-curvature="0"
     style="fill:#e8c41e;fill-opacity:1;stroke-width:1;stroke:none;stroke-opacity:1"
     sodipodi:nodetypes="cccc" /></svg>

<svg xmlns="http://www.w3.org/2000/svg" xml:space="preserve" width="64" height="64"><path d="M16 18v1c0 2.435.658 5.196 2 7.611s3.405 4.504 6.213 5.346l.14.043h1.852c.976 1.15 2.134 2.041 3.494 2.521a2.5 2.5 0 0 0-.199.979 2.5 2.5 0 0 0 1.064 2.045c-.385 3.885-1.616 7.48-3.726 9.455h10.324c-2.11-1.975-3.341-5.57-3.726-9.455A2.5 2.5 0 0 0 34.5 35.5a2.5 2.5 0 0 0-.201-.979c1.36-.48 2.52-1.371 3.496-2.521h1.851l.141-.043c2.808-.842 4.871-2.93 6.213-5.346s2-5.176 2-7.611v-1H21.676Zm2.133 2h3.629c.315 4.29 1.436 7.614 2.994 10h-.043c-2.152-.675-3.82-2.303-4.963-4.361-.984-1.77-1.466-3.793-1.617-5.639Zm24.105 0h3.63c-.152 1.846-.634 3.868-1.618 5.639-1.144 2.058-2.811 3.686-4.963 4.361h-.043c1.558-2.386 2.679-5.71 2.994-10z" style="color:#000;font-style:normal;font-variant:normal;font-weight:400;font-stretch:normal;font-size:medium;line-height:normal;font-family:sans-serif;font-variant-ligatures:normal;font-variant-position:normal;font-variant-caps:normal;font-variant-numeric:normal;font-variant-alternates:normal;font-feature-settings:normal;text-indent:0;text-align:start;text-decoration:none;text-decoration-line:none;text-decoration-style:solid;text-decoration-color:#000;letter-spacing:normal;word-spacing:normal;text-transform:none;writing-mode:lr-tb;direction:ltr;text-orientation:mixed;dominant-baseline:auto;baseline-shift:baseline;text-anchor:start;white-space:normal;shape-padding:0;clip-rule:nonzero;display:inline;overflow:visible;visibility:visible;opacity:1;isolation:auto;mix-blend-mode:normal;color-interpolation:sRGB;color-interpolation-filters:linearRGB;solid-color:#000;solid-opacity:1;vector-effect:none;fill:#1a1a1a;fill-opacity:1;fill-rule:nonzero;stroke:#1a1a1a;stroke-width:1;stroke-linecap:round;stroke-linejoin:miter;stroke-miterlimit:4;stroke-dasharray:none;stroke-dashoffset:0;stroke-opacity:1;color-rendering:auto;image-rendering:auto;shape-rendering:auto;text-rendering:auto"/><path d="M16 18v1c0 2.435.658 5.196 2 7.611s3.405 4.504 6.213 5.346l.14.043h15.293l.141-.043c2.808-.842 4.871-2.93 6.213-5.346s2-5.176 2-7.611v-1zm2.133 2h27.734c-.15 1.846-.633 3.868-1.617 5.639-1.144 2.058-2.811 3.686-4.963 4.361H24.713c-2.152-.675-3.82-2.303-4.963-4.361-.984-1.77-1.466-3.793-1.617-5.639" style="color:#000;font-style:normal;font-variant:normal;font-weight:400;font-stretch:normal;font-size:medium;line-height:normal;font-family:sans-serif;font-variant-ligatures:normal;font-variant-position:normal;font-variant-caps:normal;font-variant-numeric:normal;font-variant-alternates:normal;font-feature-settings:normal;text-indent:0;text-align:start;text-decoration:none;text-decoration-line:none;text-decoration-style:solid;text-decoration-color:#000;letter-spacing:normal;word-spacing:normal;text-transform:none;writing-mode:lr-tb;direction:ltr;text-orientation:mixed;dominant-baseline:auto;baseline-shift:baseline;text-anchor:start;white-space:normal;shape-padding:0;clip-rule:nonzero;display:inline;overflow:visible;visibility:visible;opacity:1;isolation:auto;mix-blend-mode:normal;color-interpolation:sRGB;color-interpolation-filters:linearRGB;solid-color:#000;solid-opacity:1;vector-effect:none;fill:#d2a62a;fill-opacity:1;fill-rule:nonzero;stroke:none;stroke-width:1;stroke-linecap:round;stroke-linejoin:miter;stroke-miterlimit:4;stroke-dasharray:none;stroke-dashoffset:0;stroke-opacity:1;color-rendering:auto;image-rendering:auto;shape-rendering:auto;text-rendering:auto"/><path d="M32 18H21.675c0 4.833 2.581 16.917 10.325 16.917S42.325 22.833 42.325 18zm-5.163 29h10.326c-2.582-2.417-3.872-7.25-3.872-12.083C32 32.5 32 32.5 30.709 34.917c0 4.833-1.29 9.666-3.872 12.083" style="fill:#e8c41e;stroke-width:1;fill-opacity:1;stroke:none;stroke-opacity:1"/><circle cx="32" cy="35.5" r="2.5" style="fill:#d2a62a;fill-opacity:1;stroke:none;stroke-width:1;stroke-opacity:1"/><path d="M32 18H21.675C22 40 42 40 42.325 18Z" style="fill:#e8c41e;fill-opacity:1;stroke-width:1;stroke:none;stroke-opacity:1"/></svg>
